X: 32
T:Morris Minuet,aka,var. TBe.o32
T:Second Strain Divided,The. TBe.032
M:3/4
L:1/8
Q:200
S:Thomas Bennet MS,1718, VWML
R:minuet
O:England
H:1718
Z:vmp.C. Graebe..
K:D major
"See minuet TBe.031"\
fefgfg | agaeag | fefgfg | agaeag |!
fefgab | agfefd | (cd)(d3 c/d/) | e6 ||
